packages/ffe-icons/icons/filled/md/maps_ugc.svg

<svg xmlns="http://www.w3.org/2000/svg" height="24" viewBox="0 -960 960 960" width="24"><path d="M139.54-309.539q-19-40.615-29.269-83.236-10.27-42.621-10.27-87.225 0-78.85 29.92-148.199 29.92-69.35 81.21-120.65 51.291-51.3 120.629-81.225 69.337-29.925 148.173-29.925t148.204 29.92q69.369 29.92 120.682 81.21 51.314 51.291 81.247 120.629 29.933 69.337 29.933 148.173t-29.925 148.204q-29.925 69.369-81.225 120.682-51.3 51.314-120.65 81.247Q558.85-100.001 480-100.001q-44.604 0-87.225-10.27-42.621-10.269-83.236-29.269L132.56-87.718q-20.558 6.254-35.827-9.015-15.27-15.269-9.015-35.827l51.822-176.979Zm310.461-140.462V-360q0 12.75 8.628 21.374 8.629 8.625 21.384 8.625 12.756 0 21.371-8.625 8.615-8.624 8.615-21.374v-90.001H600q12.75 0 21.375-8.628 8.624-8.629 8.624-21.384 0-12.756-8.624-21.371-8.625-8.615-21.375-8.615h-90.001V-600q0-12.75-8.628-21.375-8.629-8.624-21.384-8.624-12.756 0-21.371 8.624-8.615 8.625-8.615 21.375v90.001H360q-12.75 0-21.374 8.628-8.625 8.629-8.625 21.384 0 12.756 8.625 21.371 8.624 8.615 21.374 8.615h90.001Z"/></svg>

<svg xmlns="http://www.w3.org/2000/svg" height="24" viewBox="0 -960 960 960" width="24"><path d="M139.54-309.54q-19-40.61-29.27-83.24Q100-435.4 100-480q0-78.85 29.92-148.2t81.21-120.65q51.29-51.3 120.63-81.22Q401.1-860 479.93-860q78.84 0 148.21 29.92t120.68 81.21q51.31 51.29 81.25 120.63Q860-558.9 860-480.07q0 78.84-29.93 148.21-29.92 69.37-81.22 120.68T628.2-129.93Q558.85-100 480-100q-44.6 0-87.22-10.27-42.63-10.27-83.24-29.27L132.56-87.72Q112-81.46 96.73-96.73t-9.01-35.83l51.82-176.98ZM450-450v90q0 12.75 8.63 21.37 8.63 8.63 21.38 8.63 12.76 0 21.37-8.63Q510-347.25 510-360v-90h90q12.75 0 21.37-8.63 8.63-8.63 8.63-21.38 0-12.76-8.63-21.37Q612.75-510 600-510h-90v-90q0-12.75-8.63-21.37-8.63-8.63-21.38-8.63-12.76 0-21.37 8.63Q450-612.75 450-600v90h-90q-12.75 0-21.37 8.63-8.63 8.63-8.63 21.38 0 12.76 8.63 21.37Q347.25-450 360-450h90Z"/></svg>
